assets/icons/24px/stroke/globe-24px.svg

<svg width="24" height="24" viewBox="0 0 24 24" fill="none" xmlns="http://www.w3.org/2000/svg">
<path fill-rule="evenodd" clip-rule="evenodd" d="M9.5 4C6.73858 4 4.5 6.23858 4.5 9C4.5 11.7614 6.73858 14 9.5 14C12.2614 14 14.5 11.7614 14.5 9C14.5 6.23858 12.2614 4 9.5 4ZM2.5 9C2.5 5.13401 5.63401 2 9.5 2C13.366 2 16.5 5.13401 16.5 9C16.5 12.866 13.366 16 9.5 16C5.63401 16 2.5 12.866 2.5 9Z" fill="white"/>
<path fill-rule="evenodd" clip-rule="evenodd" d="M9.00256 8.64901C7.77203 6.94971 6.28347 6 5 6V4C7.21653 4 9.22797 5.55029 10.6224 7.47599C12.0406 9.43438 13 12.0108 13 14.5H11C11 12.4892 10.2094 10.3156 9.00256 8.64901Z" fill="white"/>
<path fill-rule="evenodd" clip-rule="evenodd" d="M9.74308 8.8968C11.5256 7.81451 12.7648 6.27499 13.0146 4.82978L14.9854 5.17044C14.6007 7.39581 12.8399 9.35629 10.7811 10.6064C8.71056 11.8635 6.09374 12.5543 3.75747 11.9703L4.24254 10.03C5.90627 10.4459 7.97221 9.97201 9.74308 8.8968Z" fill="white"/>
<path fill-rule="evenodd" clip-rule="evenodd" d="M15.7929 2.29289C16.1834 1.90237 16.8166 1.90237 17.2071 2.29289C18.4069 3.49269 19.5 5.75264 19.5 8.5C19.5 11.4621 18.5547 14.1012 16.7203 16.0061C14.8802 17.9171 12.2308 19 8.99998 19C6.22207 19 4.02659 17.8862 2.44561 16.8331C1.98596 16.527 1.86154 15.9061 2.16772 15.4465C2.47389 14.9868 3.09471 14.8624 3.55436 15.1686C4.97338 16.1138 6.7779 17 8.99998 17C11.7692 17 13.8698 16.0829 15.2797 14.6189C16.6953 13.1488 17.5 11.0379 17.5 8.5C17.5 6.24736 16.5931 4.50731 15.7929 3.70711C15.4024 3.31658 15.4024 2.68342 15.7929 2.29289Z" fill="white"/>
<path fill-rule="evenodd" clip-rule="evenodd" d="M14.5 16C15.0523 16 15.5 16.4477 15.5 17V20H17.5C18.0523 20 18.5 20.4477 18.5 21C18.5 21.5523 18.0523 22 17.5 22H11C10.4477 22 10 21.5523 10 21C10 20.4477 10.4477 20 11 20H13.5V17C13.5 16.4477 13.9477 16 14.5 16Z" fill="white"/>
</svg>

<svg width="24" height="24" fill="none" xmlns="http://www.w3.org/2000/svg"><path fill-rule="evenodd" clip-rule="evenodd" d="M9.5 4a5 5 0 1 0 0 10 5 5 0 0 0 0-10zm-7 5a7 7 0 1 1 14 0 7 7 0 0 1-14 0z" fill="#fff"/><path fill-rule="evenodd" clip-rule="evenodd" d="M9.003 8.649C7.772 6.949 6.283 6 5 6V4c2.217 0 4.228 1.55 5.622 3.476C12.041 9.434 13 12.011 13 14.5h-2c0-2.01-.79-4.184-1.997-5.851z" fill="#fff"/><path fill-rule="evenodd" clip-rule="evenodd" d="M9.743 8.897c1.783-1.082 3.022-2.622 3.272-4.067l1.97.34c-.384 2.226-2.145 4.186-4.204 5.436-2.07 1.258-4.687 1.948-7.024 1.364l.486-1.94c1.663.416 3.73-.058 5.5-1.133z" fill="#fff"/><path fill-rule="evenodd" clip-rule="evenodd" d="M15.793 2.293a1 1 0 0 1 1.414 0c1.2 1.2 2.293 3.46 2.293 6.207 0 2.962-.945 5.601-2.78 7.506C14.88 17.917 12.23 19 9 19c-2.778 0-4.973-1.114-6.554-2.167a1 1 0 1 1 1.108-1.664C4.974 16.114 6.778 17 9 17c2.77 0 4.87-.917 6.28-2.381 1.415-1.47 2.22-3.581 2.22-6.119 0-2.253-.907-3.993-1.707-4.793a1 1 0 0 1 0-1.414z" fill="#fff"/><path fill-rule="evenodd" clip-rule="evenodd" d="M14.5 16a1 1 0 0 1 1 1v3h2a1 1 0 1 1 0 2H11a1 1 0 1 1 0-2h2.5v-3a1 1 0 0 1 1-1z" fill="#fff"/></svg>
